X: 21491
T: Kiark Catreeney Marroo
R: waltz
M: 3/4
K: Dmajor
f/e/|d2A F>ED|E>FE c>Bc|d2A F2E|F<DD D2 f/e/|
d2A F>ED|E>FE c>Bc|d2A F2E|F<DD D2A|
d>cd Bcd|e>fe/d/ cBA|d>cd efg|fdd d2 e/f/|
gfg Bcd|efd cBA|d2A F2E|F<DD D2||

